public/images/bd10.svg

<svg width="100" height="100" viewBox="0 0 100 100" fill="none" xmlns="http://www.w3.org/2000/svg">
<path d="M9.79888 90.8419H8.08144L7.23475 88.4464H3.52565L2.70782 90.8419H1L4.5311 81.4465H6.29184L9.79888 90.8419ZM6.82102 87.1815L5.51249 83.4348C5.45734 83.2415 5.41555 83.0446 5.38741 82.8455H5.35855C5.33071 83.045 5.28728 83.2421 5.22866 83.4348L3.93456 87.1815H6.82102Z" fill="#465154"/>
<path d="M16.2357 84.7715L12.5987 89.6584H16.2212V90.8418H10.4483V90.2717L14.1622 85.3177H10.7947V84.1343H16.2357V84.7715Z" fill="#465154"/>
<path d="M23.3075 90.8418H21.7825V89.783H21.7584C21.5697 90.1631 21.2742 90.4804 20.9078 90.6964C20.5415 90.9125 20.12 91.0179 19.6946 90.9999C18.091 90.9999 17.2892 90.0417 17.2892 88.1253V84.1151H18.8143V87.948C18.8143 89.1522 19.2809 89.7543 20.2142 89.7543C20.4243 89.762 20.6335 89.7231 20.8265 89.6402C21.0196 89.5573 21.1917 89.4326 21.3303 89.2751C21.6329 88.9096 21.7889 88.4453 21.7681 87.972V84.1151H23.2931L23.3075 90.8418Z" fill="#465154"/>
<path d="M29.0179 85.5813C28.7848 85.4233 28.5054 85.3475 28.2241 85.3657C27.9999 85.3666 27.7794 85.4226 27.5822 85.5287C27.385 85.6349 27.2171 85.7879 27.0936 85.9741C26.7674 86.4637 26.6088 87.0452 26.6414 87.6319V90.8419H25.1115V84.1344H26.6366V85.5142H26.6606C26.7809 85.0896 27.0194 84.7076 27.3485 84.4122C27.6322 84.1571 28.0006 84.0155 28.3829 84.0146C28.6001 84.0025 28.8169 84.0453 29.0131 84.1391L29.0179 85.5813Z" fill="#465154"/>
<path d="M35.777 87.9001H31.1875C31.1781 88.1665 31.2245 88.432 31.3239 88.6795C31.4233 88.9269 31.5735 89.1511 31.7648 89.3375C32.1846 89.6924 32.7256 89.8726 33.2754 89.8406C33.988 89.8433 34.6828 89.6183 35.2574 89.1985V90.4251C34.5163 90.8406 33.6727 91.0399 32.8232 91C32.3911 91.0234 31.959 90.9537 31.5564 90.7958C31.1537 90.6379 30.79 90.3954 30.4899 90.0849C29.8875 89.3668 29.5844 88.446 29.6433 87.5121C29.6033 86.5723 29.9369 85.6548 30.5717 84.9584C30.8645 84.6391 31.2224 84.3859 31.6215 84.2157C32.0206 84.0454 32.4516 83.9622 32.8857 83.9714C33.2858 83.9491 33.6858 84.0172 34.0557 84.1707C34.4256 84.3242 34.7559 84.5591 35.0217 84.8578C35.5627 85.5596 35.8309 86.4325 35.777 87.3156V87.9001ZM34.3049 86.8269C34.3284 86.3698 34.1906 85.919 33.9152 85.5525C33.7888 85.3969 33.6278 85.2727 33.445 85.1895C33.2622 85.1064 33.0625 85.0666 32.8617 85.0734C32.6522 85.0701 32.4444 85.1112 32.252 85.1937C32.0596 85.2763 31.887 85.3986 31.7456 85.5525C31.4281 85.8984 31.2308 86.3368 31.1827 86.803L34.3049 86.8269Z" fill="#465154"/>
<path d="M41.1073 90.8419V81.4513H43.8158C47.2923 81.4513 49.0306 82.9781 49.0306 86.0316C49.0577 86.6831 48.9426 87.3326 48.6935 87.9355C48.4444 88.5385 48.067 89.0805 47.5874 89.5243C46.5111 90.4436 45.121 90.9153 43.7051 90.8419H41.1073ZM42.666 82.7832V89.5387H43.9168C44.3841 89.5669 44.8523 89.5013 45.2936 89.3458C45.7349 89.1902 46.1403 88.9479 46.4857 88.6332C46.8049 88.2919 47.051 87.8895 47.209 87.4505C47.3669 87.0115 47.4335 86.545 47.4046 86.0795C47.4046 83.882 46.2628 82.7832 43.9793 82.7832H42.666Z" fill="#465154"/>
<path d="M55.5925 90.8419H54.1108V89.7926H54.0867C53.8952 90.1656 53.6015 90.477 53.2397 90.6906C52.8779 90.9043 52.4627 91.0115 52.0422 91C51.4734 91.0327 50.9147 90.8398 50.4883 90.4634C50.2976 90.2771 50.1489 90.0527 50.0518 89.8049C49.9548 89.5571 49.9117 89.2917 49.9254 89.026C49.9254 87.7484 50.6583 87.0106 52.124 86.8125L54.1252 86.5299C54.1252 85.5716 53.6698 85.0925 52.759 85.0925C51.9586 85.092 51.1861 85.3854 50.5893 85.9166V84.5847C51.3361 84.1565 52.1861 83.9395 53.0476 83.957C54.7474 83.957 55.5973 84.7907 55.5973 86.458L55.5925 90.8419ZM54.1204 87.5456L52.7061 87.742C52.3554 87.7686 52.0159 87.8769 51.715 88.0582C51.5965 88.1562 51.5042 88.2818 51.4463 88.4239C51.3884 88.5661 51.3667 88.7202 51.3831 88.8727C51.3792 89.0048 51.4047 89.136 51.458 89.257C51.5112 89.378 51.5908 89.4856 51.691 89.5722C51.9194 89.7625 52.2114 89.86 52.5088 89.8453C52.7245 89.8522 52.9391 89.813 53.1382 89.7304C53.3374 89.6477 53.5165 89.5236 53.6634 89.3662C53.9799 89.0365 54.1528 88.5957 54.1445 88.1397L54.1204 87.5456Z" fill="#465154"/>
<path d="M60.8507 90.77C60.4799 90.9323 60.0767 91.0077 59.672 90.9904C58.3667 90.9904 57.714 90.366 57.714 89.1171V85.3225H56.5883V84.1295H57.714V82.5772L59.239 82.146V84.1295H60.8507V85.3225H59.239V88.6763C59.2114 88.9768 59.2878 89.2778 59.4555 89.5291C59.5497 89.6217 59.6631 89.6924 59.7879 89.7363C59.9126 89.7802 60.0455 89.7962 60.1771 89.783C60.4189 89.7885 60.6551 89.7107 60.8458 89.5626L60.8507 90.77Z" fill="#465154"/>
<path d="M67.3885 90.8419H65.9453V89.7926H65.9212C65.7297 90.1656 65.436 90.477 65.0742 90.6906C64.7123 90.9043 64.2971 91.0115 63.8766 91C63.3078 91.0327 62.7491 90.8398 62.3228 90.4634C62.1321 90.2771 61.9833 90.0527 61.8863 89.8049C61.7893 89.5571 61.7462 89.2917 61.7599 89.026C61.7599 87.7484 62.4927 87.0106 63.9584 86.8125L65.9597 86.5299C65.9597 85.5716 65.5043 85.0925 64.5934 85.0925C63.793 85.092 63.0205 85.3854 62.4238 85.9166V84.5847C63.1706 84.1565 64.0206 83.9395 64.8821 83.957C66.5819 83.957 67.4318 84.7907 67.4318 86.458L67.3885 90.8419ZM65.9453 87.5456L64.5309 87.742C64.1806 87.7669 63.8411 87.8736 63.5399 88.0534C63.4214 88.1514 63.329 88.277 63.2711 88.4191C63.2132 88.5613 63.1915 88.7154 63.2079 88.8679C63.204 89 63.2296 89.1312 63.2828 89.2522C63.3361 89.3732 63.4157 89.4809 63.5158 89.5674C63.7442 89.7577 64.0363 89.8552 64.3337 89.8405C64.5493 89.8474 64.7639 89.8082 64.9631 89.7256C65.1622 89.6429 65.3413 89.5188 65.4882 89.3614C65.8047 89.0317 65.9776 88.5909 65.9693 88.1349L65.9453 87.5456Z" fill="#465154"/>
<path d="M78.3667 90.8419H73.1614V81.4513H74.7249V89.5291H78.3811L78.3667 90.8419Z" fill="#465154"/>
<path d="M84.8708 90.8419H83.3891V89.7926H83.365C83.1735 90.1656 82.8798 90.477 82.518 90.6906C82.1561 90.9043 81.741 91.0115 81.3205 91C80.7516 91.0327 80.193 90.8398 79.7666 90.4634C79.5759 90.2771 79.4272 90.0527 79.3301 89.8049C79.2331 89.5571 79.19 89.2917 79.2037 89.026C79.2037 87.7484 79.9366 87.0106 81.4022 86.8125L83.4035 86.5299C83.4035 85.5716 82.9481 85.0925 82.0373 85.0925C81.2369 85.092 80.4644 85.3854 79.8676 85.9166V84.5847C80.6144 84.1565 81.4644 83.9395 82.3259 83.957C84.0257 83.957 84.8756 84.7907 84.8756 86.458L84.8708 90.8419ZM83.3987 87.5456L81.9843 87.742C81.6336 87.7684 81.2941 87.8767 80.9933 88.0582C80.8748 88.1562 80.7825 88.2818 80.7246 88.4239C80.6667 88.5661 80.6449 88.7202 80.6614 88.8727C80.6574 89.0048 80.683 89.136 80.7363 89.257C80.7895 89.378 80.8691 89.4856 80.9693 89.5722C81.1977 89.7625 81.4897 89.86 81.7871 89.8453C82.0027 89.8522 82.2174 89.813 82.4165 89.7304C82.6157 89.6477 82.7948 89.5236 82.9417 89.3662C83.2582 89.0365 83.4311 88.5957 83.4228 88.1397L83.3987 87.5456Z" fill="#465154"/>
<path d="M92.7171 90.8419H90.7928L88.1758 87.6175H88.1517V90.8419H86.6171V80.9099H88.1517V87.2054H88.1758L90.6485 84.1343H92.4814L89.7008 87.3683L92.7171 90.8419Z" fill="#465154"/>
<path d="M99 87.9001H94.4105C94.4011 88.1665 94.4476 88.432 94.547 88.6795C94.6464 88.9269 94.7965 89.1511 94.9878 89.3375C95.4076 89.6924 95.9486 89.8726 96.4984 89.8406C97.211 89.8433 97.9058 89.6183 98.4804 89.1985V90.4251C97.7394 90.8409 96.8957 91.0402 96.0462 91C95.6141 91.0234 95.182 90.9537 94.7794 90.7958C94.3768 90.6379 94.013 90.3954 93.713 90.0849C93.1105 89.3668 92.8075 88.446 92.8663 87.5121C92.8263 86.5723 93.1599 85.6548 93.7947 84.9584C94.0875 84.6391 94.4455 84.3859 94.8445 84.2157C95.2436 84.0454 95.6747 83.9622 96.1087 83.9714C96.5088 83.9491 96.9088 84.0172 97.2787 84.1707C97.6487 84.3242 97.9789 84.5591 98.2447 84.8578C98.7857 85.5596 99.054 86.4325 99 87.3156V87.9001ZM97.5279 86.8269C97.5514 86.3698 97.4136 85.919 97.1382 85.5525C97.012 85.3966 96.8511 85.2722 96.6683 85.189C96.4854 85.1059 96.2856 85.0663 96.0847 85.0734C95.8752 85.0701 95.6674 85.1112 95.475 85.1937C95.2826 85.2763 95.11 85.3986 94.9686 85.5525C94.6511 85.8984 94.4538 86.3368 94.4057 86.803L97.5279 86.8269Z" fill="#465154"/>
<path d="M83.8557 15.4105H52.884C52.5532 15.4209 52.2288 15.3178 51.9652 15.1183L43.1038 9.24914C42.8255 9.08541 42.5081 8.99935 42.1849 9H16.1443C15.7077 8.99986 15.2883 9.16959 14.9755 9.473C14.6628 9.77642 14.4814 10.1895 14.4701 10.6242V65.1519C14.4814 65.5866 14.6628 65.9997 14.9755 66.3031C15.2883 66.6065 15.7077 66.7763 16.1443 66.7761H83.8557C84.2923 66.7763 84.7117 66.6065 85.0245 66.3031C85.3372 65.9997 85.5186 65.5866 85.5299 65.1519V17.0778C85.5299 16.6356 85.3535 16.2115 85.0395 15.8989C84.7256 15.5862 84.2997 15.4105 83.8557 15.4105Z" fill="#005BA1"/>
<path d="M36.4168 12.1621H21.6189C21.2496 12.1621 20.9502 12.4603 20.9502 12.8281V14.7014C20.9502 15.0692 21.2496 15.3674 21.6189 15.3674H36.4168C36.7861 15.3674 37.0855 15.0692 37.0855 14.7014V12.8281C37.0855 12.4603 36.7861 12.1621 36.4168 12.1621Z" fill="white"/>
<path d="M23.7068 12.1621H21.4121C21.157 12.1621 20.9502 12.368 20.9502 12.6221V14.9074C20.9502 15.1614 21.157 15.3674 21.4121 15.3674H23.7068C23.9619 15.3674 24.1686 15.1614 24.1686 14.9074V12.6221C24.1686 12.368 23.9619 12.1621 23.7068 12.1621Z" fill="#1AC3F2"/>
<path d="M83.8557 15.329H49.9976C49.7795 15.3197 49.562 15.3577 49.3602 15.4405C49.1583 15.5232 48.9769 15.6486 48.8286 15.8081L43.1856 21.2365C42.8669 21.5317 42.4516 21.7019 42.0165 21.7156H16.1443C15.7019 21.7156 15.2775 21.8899 14.9639 22.2005C14.6502 22.5111 14.4727 22.9328 14.4701 23.3733V64.9985C14.4814 65.4332 14.6628 65.8463 14.9755 66.1497C15.2883 66.4531 15.7077 66.6229 16.1443 66.6227H83.8557C84.2923 66.6229 84.7117 66.4531 85.0245 66.1497C85.3372 65.8463 85.5186 65.4332 85.5299 64.9985V17.0873C85.5508 16.6466 85.3955 16.2156 85.0979 15.8887C84.8003 15.5618 84.3848 15.3657 83.9423 15.3434L83.8557 15.329Z" fill="url(#paint0_linear_1_7242)"/>
<path d="M54.9334 24.1543C54.8233 24.1237 54.7068 24.1237 54.5967 24.1543C54.4891 24.1559 54.3836 24.1833 54.2889 24.2342C54.1943 24.2851 54.1134 24.3579 54.0531 24.4466L40.8475 43.5488C40.7888 43.65 40.7579 43.7649 40.7579 43.8818C40.7579 43.9987 40.7888 44.1135 40.8475 44.2148C40.909 44.3303 40.9983 44.4289 41.1075 44.5017C41.2166 44.5744 41.3422 44.6191 41.4729 44.6316H49.2904L45.8218 56.2021C45.7895 56.2657 45.7701 56.3349 45.7647 56.4059C45.7593 56.4769 45.7681 56.5483 45.7904 56.616C45.8127 56.6836 45.8483 56.7462 45.8949 56.8002C45.9416 56.8541 45.9985 56.8984 46.0624 56.9304H46.1153C46.2099 56.9657 46.3141 56.9657 46.4088 56.9304C46.5194 56.953 46.6345 56.9361 46.7339 56.8826C46.8333 56.8292 46.9106 56.7427 46.9524 56.6381L60.5764 37.2676V36.8508C60.5654 36.6703 60.4855 36.5009 60.3532 36.3771C60.2209 36.2533 60.046 36.1845 59.8645 36.1848H51.513L54.8805 24.8107C54.9606 24.7223 55.0091 24.6101 55.0187 24.4915C55.0283 24.3728 54.9983 24.2543 54.9334 24.1543Z" fill="white"/>
<defs>
<linearGradient id="paint0_linear_1_7242" x1="50.9982" y1="4.41963" x2="49.3807" y2="69.1911" gradientUnits="userSpaceOnUse">
<stop stop-color="#32D4F5"/>
<stop offset="0.23" stop-color="#31D0F1"/>
<stop offset="0.46" stop-color="#2CC3E6"/>
<stop offset="0.7" stop-color="#25AFD4"/>
<stop offset="0.94" stop-color="#1C92BA"/>
<stop offset="1" stop-color="#198AB3"/>
</linearGradient>
</defs>
</svg>

<svg xmlns="http://www.w3.org/2000/svg" width="100" height="100" fill="none"><path fill="#465154" d="M9.799 90.842H8.08l-.846-2.396h-3.71l-.817 2.396H1l3.531-9.395h1.76zm-2.978-3.66-1.309-3.747a4 4 0 0 1-.125-.59H5.36q-.042.3-.13.59L3.935 87.18zM16.236 84.772l-3.637 4.886h3.622v1.184h-5.773v-.57l3.714-4.954h-3.367v-1.184h5.44zM23.308 90.842h-1.526v-1.059h-.024A2.19 2.19 0 0 1 19.695 91q-2.406 0-2.406-2.875v-4.01h1.525v3.833q0 1.806 1.4 1.806a1.42 1.42 0 0 0 1.116-.479c.303-.365.459-.83.438-1.303v-3.857h1.525zM29.018 85.581a1.27 1.27 0 0 0-.794-.215 1.37 1.37 0 0 0-1.13.608 2.7 2.7 0 0 0-.453 1.658v3.21h-1.53v-6.708h1.526v1.38h.024c.12-.424.358-.806.688-1.102a1.55 1.55 0 0 1 1.034-.397c.217-.013.434.03.63.124zM35.777 87.9h-4.59a1.9 1.9 0 0 0 .578 1.438c.42.354.96.535 1.51.503a3.34 3.34 0 0 0 1.982-.642v1.226a4.54 4.54 0 0 1-2.434.575 3.02 3.02 0 0 1-2.333-.915 3.65 3.65 0 0 1-.847-2.573c-.04-.94.294-1.857.929-2.554a3.05 3.05 0 0 1 2.314-.987 2.67 2.67 0 0 1 2.136.887 3.66 3.66 0 0 1 .755 2.458zm-1.472-1.073a1.95 1.95 0 0 0-.39-1.275 1.3 1.3 0 0 0-1.053-.479 1.49 1.49 0 0 0-1.116.48 2.18 2.18 0 0 0-.563 1.25zM41.107 90.842v-9.39h2.709q5.215 0 5.215 4.58a4.5 4.5 0 0 1-1.444 3.492 5.54 5.54 0 0 1-3.882 1.318zm1.559-8.059v6.756h1.25a3.5 3.5 0 0 0 2.57-.906 3.43 3.43 0 0 0 .919-2.553q0-3.297-3.426-3.297zM55.593 90.842H54.11v-1.05h-.024A2.22 2.22 0 0 1 52.042 91a2.16 2.16 0 0 1-1.554-.537 1.88 1.88 0 0 1-.563-1.437q0-1.916 2.199-2.213l2.001-.283q0-1.437-1.366-1.437c-.8-.001-1.573.292-2.17.824v-1.332a4.75 4.75 0 0 1 2.459-.628q2.55 0 2.55 2.501zm-1.473-3.296-1.414.196a2.25 2.25 0 0 0-.991.316.93.93 0 0 0-.332.815.89.89 0 0 0 .308.7c.228.19.52.287.818.272a1.52 1.52 0 0 0 1.154-.479c.317-.33.49-.77.482-1.226zM60.85 90.77c-.37.162-.773.238-1.178.22q-1.958 0-1.958-1.873v-3.794h-1.126v-1.194h1.126v-1.552l1.525-.431v1.983h1.612v1.194h-1.612v3.353c-.028.3.049.602.217.853a.9.9 0 0 0 .721.254c.242.005.478-.072.669-.22zM67.389 90.842h-1.444v-1.05h-.024A2.22 2.22 0 0 1 63.877 91a2.16 2.16 0 0 1-1.554-.537 1.88 1.88 0 0 1-.563-1.437q0-1.916 2.198-2.213l2.002-.283q0-1.437-1.367-1.437c-.8-.001-1.573.292-2.17.824v-1.332a4.75 4.75 0 0 1 2.46-.628q2.549 0 2.549 2.501zm-1.444-3.296-1.414.196c-.35.025-.69.132-.991.311a.93.93 0 0 0-.332.815.89.89 0 0 0 .308.7c.228.19.52.287.818.273a1.52 1.52 0 0 0 1.154-.48c.317-.33.49-.77.481-1.226zM78.367 90.842H73.16v-9.39h1.564v8.077h3.656zM84.87 90.842h-1.48v-1.05h-.025A2.22 2.22 0 0 1 81.321 91a2.16 2.16 0 0 1-1.554-.537 1.88 1.88 0 0 1-.563-1.437q0-1.916 2.198-2.213l2.001-.283q0-1.437-1.366-1.437c-.8-.001-1.573.292-2.17.824v-1.332a4.75 4.75 0 0 1 2.459-.628q2.55 0 2.55 2.501zM83.4 87.546l-1.415.196c-.35.026-.69.135-.99.316a.93.93 0 0 0-.333.815.89.89 0 0 0 .308.7c.229.19.52.287.818.272a1.52 1.52 0 0 0 1.155-.479c.316-.33.49-.77.48-1.226zM92.717 90.842h-1.924l-2.617-3.224h-.024v3.224h-1.535V80.91h1.535v6.295h.024l2.472-3.07h1.833l-2.78 3.233zM99 87.9h-4.59a1.9 1.9 0 0 0 .578 1.438c.42.354.96.535 1.51.503a3.34 3.34 0 0 0 1.982-.642v1.226a4.54 4.54 0 0 1-2.434.575 3.02 3.02 0 0 1-2.333-.915 3.65 3.65 0 0 1-.847-2.573c-.04-.94.294-1.857.929-2.554a3.05 3.05 0 0 1 2.314-.987 2.67 2.67 0 0 1 2.136.887A3.66 3.66 0 0 1 99 87.316zm-1.472-1.073a1.95 1.95 0 0 0-.39-1.275 1.3 1.3 0 0 0-1.053-.479 1.49 1.49 0 0 0-1.116.48 2.18 2.18 0 0 0-.563 1.25z"/><path fill="#005BA1" d="M83.856 15.41H52.884c-.33.01-.655-.092-.919-.292L43.104 9.25a1.8 1.8 0 0 0-.92-.249h-26.04c-.436 0-.856.17-1.168.473a1.66 1.66 0 0 0-.506 1.151v54.528c.011.435.193.848.505 1.151.313.303.733.473 1.17.473h67.71c.437 0 .857-.17 1.17-.473s.494-.716.505-1.151V17.078c0-.442-.177-.866-.49-1.18a1.68 1.68 0 0 0-1.184-.487"/><path fill="#fff" d="M36.417 12.162H21.619a.667.667 0 0 0-.669.666v1.873c0 .368.3.666.669.666h14.798c.37 0 .669-.298.669-.666v-1.873c0-.368-.3-.666-.67-.666"/><path fill="#1AC3F2" d="M23.707 12.162h-2.295a.46.46 0 0 0-.462.46v2.285c0 .254.207.46.462.46h2.295a.46.46 0 0 0 .462-.46v-2.285a.46.46 0 0 0-.462-.46"/><path fill="url(#a)" d="M83.856 15.329H49.998a1.51 1.51 0 0 0-1.17.48l-5.642 5.428a1.8 1.8 0 0 1-1.17.479H16.145c-.442 0-.866.174-1.18.485-.314.31-.491.732-.494 1.172V65c.011.434.193.847.505 1.15.313.304.733.474 1.17.474h67.71c.437 0 .857-.17 1.17-.473.312-.304.494-.717.505-1.151V17.087c.02-.44-.135-.871-.432-1.198a1.68 1.68 0 0 0-1.156-.546z"/><path fill="#fff" d="M54.933 24.154a.63.63 0 0 0-.336 0 .67.67 0 0 0-.544.293L40.848 43.549a.66.66 0 0 0 0 .666.8.8 0 0 0 .625.417h7.817l-3.468 11.57a.54.54 0 0 0 .24.728h.053a.42.42 0 0 0 .294 0 .48.48 0 0 0 .543-.292l13.624-19.37v-.417a.71.71 0 0 0-.712-.666h-8.351L54.88 24.81a.54.54 0 0 0 .053-.657"/><defs><linearGradient id="a" x1="50.998" x2="49.381" y1="4.42" y2="69.191" gradientUnits="userSpaceOnUse"><stop stop-color="#32D4F5"/><stop offset=".23" stop-color="#31D0F1"/><stop offset=".46" stop-color="#2CC3E6"/><stop offset=".7" stop-color="#25AFD4"/><stop offset=".94" stop-color="#1C92BA"/><stop offset="1" stop-color="#198AB3"/></linearGradient></defs></svg>
